X: 35893
T: Sandy M'Gaff
R: jig
M: 6/8
K: Edorian
~E3 EFG|~B3 Bcd|~ E3 EFG|BAG FED|
~E3 EFG|~B3 Bcd|fgf edc|dAG FED:|
E2 e efg|fdf e2 E|E2 e efg|fga g2 e|
DFA d2 e|fec d2 A|DFA d2 A|BAG FED:|

